; generated by Slic3r 0.9.10b on 2013-12-02 at 09:11:32

; layer_height = 0.4
; perimeters = 3
; top_solid_layers = 3
; bottom_solid_layers = 3
; fill_density = 0.4
; perimeter_speed = 45
; infill_speed = 60
; travel_speed = 100
; nozzle_diameter = 0.4
; filament_diameter = 2.95
; extrusion_multiplier = 1
; perimeters extrusion width = 0.42mm
; infill extrusion width = 0.42mm
; solid infill extrusion width = 0.42mm
; top infill extrusion width = 0.42mm
; first layer extrusion width = 0.70mm

G21 ; set units to millimeters
M107
M190 S60 ; wait for bed temperature to be reached
M104 S190 ; set temperature
G28 ; home all axes
G1 Z5 F5000 ; lift nozzle

M109 S190 ; wait for temperature to be reached
G90 ; use absolute coordinates
G92 E0
M82 ; use absolute distances for extrusion
G1 F1800.000 E-1.00000
G92 E0
G1 Z0.350 F6000.000
G1 X61.040 Y102.469
G1 F1800.000 E1.00000
G1 X61.980 Y101.979 F810.000 E1.03450
G1 X63.010 Y101.549 E1.07083
G1 X64.090 Y101.289 E1.10699
G1 X65.180 Y101.129 E1.14285
G1 X66.140 Y101.059 E1.17418
G1 X136.130 Y101.059 E3.45225
G1 X137.100 Y101.139 E3.48393
G1 X138.180 Y101.299 E3.51946
G1 X138.930 Y101.449 E3.54436
G1 X139.650 Y101.689 E3.56906
G1 X140.030 Y101.839 E3.58236
G1 X140.930 Y102.279 E3.61496
G1 X141.530 Y102.629 E3.63757
G1 X142.240 Y103.099 E3.66529
G1 X142.880 Y103.669 E3.69318
G1 X143.660 Y104.449 E3.72909
G1 X144.070 Y104.899 E3.74890
G1 X144.440 Y105.379 E3.76863
G1 X144.550 Y105.539 E3.77495
G1 X145.090 Y106.479 E3.81023
G1 X145.470 Y107.289 E3.83935
G1 X145.770 Y108.049 E3.86595
G1 X163.360 Y161.919 E5.71044
G1 X163.610 Y162.979 E5.74589
G1 X163.910 Y164.949 E5.81075
G1 X163.990 Y165.949 E5.84340
G1 X163.910 Y166.949 E5.87606
G1 X163.610 Y168.909 E5.94059
G1 X163.360 Y169.959 E5.97572
G1 X162.950 Y170.939 E6.01030
G1 X162.040 Y172.709 E6.07508
G1 X161.500 Y173.589 E6.10869
G1 X160.830 Y174.369 E6.14215
G1 X159.430 Y175.769 E6.20660
G1 X158.640 Y176.449 E6.24052
G1 X157.750 Y176.989 E6.27441
G1 X155.980 Y177.889 E6.33904
G1 X155.030 Y178.289 E6.37259
G1 X154.040 Y178.529 E6.40574
G1 X152.080 Y178.849 E6.47038
G1 X151.200 Y178.929 E6.49915
G1 X150.330 Y178.899 E6.52748
G1 X95.270 Y173.189 E8.32921
G1 X73.620 Y170.129 E9.04089
G1 X71.370 Y169.659 E9.11571
G1 X70.680 Y169.469 E9.13900
G1 X70.020 Y169.219 E9.16197
G1 X67.920 Y168.279 E9.23686
G1 X67.310 Y167.959 E9.25928
G1 X66.730 Y167.589 E9.28167
G1 X64.870 Y166.239 E9.35648
G1 X64.330 Y165.799 E9.37915
G1 X63.840 Y165.309 E9.40171
G1 X62.300 Y163.599 E9.47661
G1 X61.860 Y163.059 E9.49928
G1 X61.480 Y162.479 E9.52185
G1 X60.330 Y160.489 E9.59666
G1 X60.020 Y159.869 E9.61922
G1 X59.770 Y159.219 E9.64189
G1 X59.060 Y157.029 E9.71682
G1 X58.880 Y156.359 E9.73940
G1 X58.770 Y155.669 E9.76214
G1 X58.530 Y153.379 E9.83709
G1 X58.500 Y152.869 E9.85372
G1 X57.470 Y114.039 E11.11802
G1 X57.470 Y108.349 E11.30322
G1 X57.630 Y106.909 E11.35038
G1 X58.100 Y105.549 E11.39721
G1 X58.840 Y104.309 E11.44422
G1 X59.840 Y103.269 E11.49118
G1 X60.961 Y102.522 E11.53501
G1 F1800.000 E10.53501
G92 E0
G1 X119.611 Y150.294 F6000.000
G1 F1800.000 E1.00000
G1 X120.884 Y149.444 F540.000 E1.04983
G1 X122.355 Y149.151 E1.09864
G1 X125.417 Y149.151 E1.19832
G1 X126.888 Y149.444 E1.24712
G1 X128.161 Y150.294 E1.29695
G1 X129.011 Y151.567 E1.34679
G1 X129.310 Y153.069 E1.39663
G1 X129.011 Y154.571 E1.44647
G1 X128.161 Y155.844 E1.49630
G1 X126.888 Y156.694 E1.54614
G1 X125.417 Y156.987 E1.59494
G1 X122.355 Y156.987 E1.69462
G1 X120.884 Y156.694 E1.74343
G1 X119.611 Y155.844 E1.79326
G1 X118.761 Y154.571 E1.84309
G1 X118.462 Y153.069 E1.89293
G1 X118.761 Y151.567 E1.94278
G1 X119.558 Y150.373 E1.98951
G1 X120.213 Y150.498 F6000.000
G1 F1800.000 E0.98951
G92 E0
G1 X114.820 Y134.717 F6000.000
G1 F1800.000 E1.00000
G1 X114.820 Y120.688 F567.000 E1.45660
G1 X114.856 Y120.037 E1.47782
G1 X114.959 Y119.385 E1.49932
G1 X115.129 Y118.745 E1.52089
G1 X115.367 Y118.127 E1.54242
G1 X115.666 Y117.540 E1.56388
G1 X116.027 Y116.984 E1.58544
G1 X116.444 Y116.470 E1.60699
G1 X116.911 Y116.003 E1.62850
G1 X117.409 Y115.599 E1.64937
G1 X117.979 Y115.225 E1.67155
G1 X118.569 Y114.926 E1.69307
G1 X119.186 Y114.688 E1.71459
G1 X119.826 Y114.518 E1.73617
G1 X120.478 Y114.415 E1.75766
G1 X121.129 Y114.379 E1.77888
G1 X132.416 Y114.379 E2.14626
G1 X132.245 Y115.680 E2.18897
G1 X130.469 Y123.694 E2.45612
G1 X130.347 Y124.080 E2.46931
G1 X125.942 Y134.717 E2.84403
G1 X114.916 Y134.717 E3.20294
G1 X115.138 Y134.166 F6000.000
G1 X105.056 Y114.578
G1 X103.510 Y114.578 F540.000 E3.25328
G1 X102.259 Y113.668 E3.30364
G1 X101.782 Y112.199 E3.35390
G1 X102.259 Y110.729 E3.40422
G1 X103.510 Y109.818 E3.45460
G1 X105.056 Y109.818 E3.50494
G1 X106.307 Y110.728 E3.55527
G1 X106.787 Y112.199 E3.60566
G1 X106.306 Y113.668 E3.65597
G1 X105.133 Y114.522 E3.70319
G1 X104.849 Y113.943 F6000.000
G1 X103.717 Y113.943 F540.000 E3.74006
G1 X102.800 Y113.275 E3.77698
G1 X102.450 Y112.199 E3.81381
G1 X102.800 Y111.121 E3.85071
G1 X103.717 Y110.453 E3.88763
G1 X104.849 Y110.453 E3.92450
G1 X105.766 Y111.121 E3.96141
G1 X106.118 Y112.199 E3.99834
G1 X105.766 Y113.275 E4.03520
G1 X104.927 Y113.887 E4.06900
G1 X104.424 Y113.471 F6000.000
G1 F1800.000 E3.06900
G92 E0
G1 X93.086 Y112.199 F6000.000
G1 F1800.000 E1.00000
G1 X92.609 Y113.668 F540.000 E1.05026
G1 X91.359 Y114.578 E1.10061
G1 X89.807 Y114.578 E1.15111
G1 X88.559 Y113.667 E1.20142
G1 X88.082 Y112.199 E1.25165
G1 X88.558 Y110.729 E1.30196
G1 X89.807 Y109.818 E1.35228
G1 X91.358 Y109.818 E1.40277
G1 X92.609 Y110.728 E1.45314
G1 X93.057 Y112.109 E1.50037
G1 X92.418 Y112.199 F6000.000
G1 X92.068 Y113.275 F540.000 E1.53720
G1 X91.152 Y113.943 E1.57412
G1 X90.014 Y113.943 E1.61113
G1 X89.100 Y113.275 E1.64799
G1 X88.750 Y112.199 E1.68482
G1 X89.099 Y111.121 E1.72170
G1 X90.014 Y110.453 E1.75857
G1 X91.151 Y110.453 E1.79558
G1 X92.068 Y111.121 E1.83250
G1 X92.389 Y112.108 E1.86630
G1 X91.837 Y112.457 F6000.000
G1 F1800.000 E0.86630
G92 E0
G1 X79.317 Y144.319 F6000.000
G1 F1800.000 E1.00000
G1 X81.230 Y145.325 F810.000 E1.07035
G1 X82.847 Y146.756 E1.14065
G1 X84.072 Y148.535 E1.21096
G1 X84.838 Y150.553 E1.28120
G1 X85.101 Y152.697 E1.35151
G1 X84.838 Y154.843 E1.42189
G1 X84.072 Y156.861 E1.49214
G1 X82.847 Y158.640 E1.56244
G1 X81.230 Y160.071 E1.63275
G1 X79.317 Y161.077 E1.70310
G1 X77.219 Y161.592 E1.77339
G1 X75.059 Y161.592 E1.84372
G1 X72.961 Y161.077 E1.91401
G1 X71.048 Y160.071 E1.98436
G1 X69.431 Y158.640 E2.05466
G1 X68.205 Y156.861 E2.12497
G1 X67.439 Y154.843 E2.19523
G1 X67.180 Y152.697 E2.26558
G1 X67.439 Y150.553 E2.33587
G1 X68.206 Y148.535 E2.40613
G1 X69.431 Y146.756 E2.47644
G1 X71.048 Y145.325 E2.54674
G1 X72.961 Y144.319 E2.61709
G1 X75.059 Y143.804 E2.68738
G1 X77.219 Y143.804 E2.75771
G1 X79.224 Y144.296 E2.82490
G1 X79.090 Y144.918 F6000.000
G1 X80.866 Y145.852 F567.000 E2.89022
G1 X82.368 Y147.181 E2.95550
G1 X83.505 Y148.832 E3.02078
G1 X84.217 Y150.706 E3.08602
G1 X84.460 Y152.697 E3.15129
G1 X84.217 Y154.690 E3.21664
G1 X83.505 Y156.564 E3.28188
G1 X82.368 Y158.215 E3.34716
G1 X80.866 Y159.544 E3.41243
G1 X79.090 Y160.478 E3.47775
G1 X77.142 Y160.957 E3.54301
G1 X75.136 Y160.957 E3.60834
G1 X73.188 Y160.478 E3.67360
G1 X71.412 Y159.544 E3.73892
G1 X69.910 Y158.215 E3.80420
G1 X68.772 Y156.564 E3.86947
G1 X68.061 Y154.690 E3.93472
G1 X67.820 Y152.697 E4.00005
G1 X68.061 Y150.706 E4.06531
G1 X68.772 Y148.832 E4.13056
G1 X69.910 Y147.181 E4.19584
G1 X71.412 Y145.852 E4.26111
G1 X73.188 Y144.918 E4.32644
G1 X75.136 Y144.439 E4.39170
G1 X77.142 Y144.439 E4.45702
G1 X78.997 Y144.895 E4.51917
G1 X79.166 Y145.549 F6000.000
G1 F1800.000 E3.51917
G92 E0
G1 X92.729 Y136.697 F6000.000
G1 F1800.000 E1.00000
G1 X92.729 Y120.654 F810.000 E1.52217
G1 X92.688 Y119.902 E1.54667
G1 X92.565 Y119.123 E1.57235
G1 X92.359 Y118.351 E1.59835
G1 X92.073 Y117.609 E1.62424
G1 X91.715 Y116.904 E1.64997
G1 X91.281 Y116.236 E1.67590
G1 X90.452 Y115.214 E1.71873
G1 X91.566 Y115.214 E1.75496
G1 X93.150 Y114.060 E1.81875
G1 X93.755 Y112.200 E1.88244
G1 X93.150 Y110.336 E1.94620
G1 X91.941 Y109.455 E1.99491
G1 X91.995 Y109.288 E2.00063
G1 X102.873 Y109.288 E2.35469
G1 X102.927 Y109.455 E2.36042
G1 X101.718 Y110.336 E2.40913
G1 X101.113 Y112.199 E2.47288
G1 X101.718 Y114.060 E2.53656
G1 X103.303 Y115.214 E2.60037
G1 X105.263 Y115.214 E2.66418
G1 X106.846 Y114.061 E2.72792
G1 X107.456 Y112.200 E2.79168
G1 X106.847 Y110.335 E2.85553
G1 X105.639 Y109.455 E2.90417
G1 X105.693 Y109.288 E2.90990
G1 X136.014 Y109.288 E3.89680
G1 X136.722 Y109.399 E3.92013
G1 X137.249 Y109.667 E3.93937
G1 X137.668 Y110.086 E3.95865
G1 X137.938 Y110.614 E3.97795
G1 X138.254 Y112.603 E4.04352
G1 X138.281 Y112.600 E4.04440
G1 X138.658 Y115.459 E4.13826
G1 X139.780 Y120.525 E4.30716
G1 X138.424 Y120.256 E4.35214
G1 X135.112 Y120.256 E4.45997
G1 X133.270 Y120.622 E4.52107
G1 X132.310 Y121.263 E4.55866
G1 X133.498 Y115.901 E4.73743
G1 X133.866 Y113.108 E4.82912
G1 X121.095 Y113.108 E5.24479
G1 X120.344 Y113.149 E5.26925
G1 X119.562 Y113.272 E5.29502
G1 X118.792 Y113.478 E5.32096
G1 X118.051 Y113.763 E5.34682
G1 X117.343 Y114.122 E5.37266
G1 X116.608 Y114.611 E5.40139
G1 X116.059 Y115.057 E5.42441
G1 X115.498 Y115.618 E5.45023
G1 X114.997 Y116.236 E5.47612
G1 X114.563 Y116.904 E5.50206
G1 X114.205 Y117.609 E5.52780
G1 X113.919 Y118.351 E5.55369
G1 X113.713 Y119.122 E5.57964
G1 X113.590 Y119.903 E5.60539
G1 X113.549 Y120.654 E5.62986
G1 X113.549 Y135.988 E6.12897
G1 X126.792 Y135.988 E6.56000
G1 X130.374 Y127.337 E6.86478
G1 X131.576 Y129.137 E6.93523
G1 X133.270 Y130.268 E7.00153
G1 X135.112 Y130.634 E7.06263
G1 X136.696 Y130.634 E7.11420
G1 X136.746 Y130.778 E7.11918
G1 X135.023 Y132.154 E7.19096
G1 X133.482 Y133.657 E7.26101
G1 X132.098 Y135.306 E7.33111
G1 X130.887 Y137.083 E7.40109
G1 X129.857 Y138.972 E7.47112
G1 X129.019 Y140.958 E7.54129
G1 X128.384 Y143.014 E7.61132
G1 X127.959 Y145.124 E7.68138
G1 X127.745 Y147.266 E7.75143
G1 X127.745 Y148.318 E7.78567
G1 X125.542 Y147.880 E7.85876
G1 X122.230 Y147.880 E7.96659
G1 X120.388 Y148.246 E8.02770
G1 X118.694 Y149.377 E8.09400
G1 X117.563 Y151.071 E8.16030
G1 X117.166 Y153.069 E8.22659
G1 X117.563 Y155.067 E8.29289
G1 X118.694 Y156.761 E8.35919
G1 X120.388 Y157.892 E8.42549
G1 X122.230 Y158.258 E8.48660
G1 X125.542 Y158.258 E8.59442
G1 X127.384 Y157.892 E8.65553
G1 X129.078 Y156.761 E8.72183
G1 X130.449 Y154.707 E8.80221
G1 X131.995 Y156.216 E8.87252
G1 X133.679 Y157.559 E8.94265
G1 X135.488 Y158.727 E9.01272
G1 X137.401 Y159.709 E9.08272
G1 X139.405 Y160.495 E9.15279
G1 X141.478 Y161.078 E9.22287
G1 X143.598 Y161.452 E9.29293
G1 X145.745 Y161.614 E9.36301
G1 X146.965 Y161.582 E9.40274
G1 X147.030 Y161.784 E9.40966
G1 X146.318 Y162.259 E9.43750
G1 X145.187 Y163.953 E9.50379
G1 X144.790 Y165.951 E9.57009
G1 X145.187 Y167.949 E9.63639
G1 X146.102 Y169.319 E9.69003
G1 X146.012 Y169.440 E9.69496
G1 X143.195 Y168.553 E9.79106
G1 X134.544 Y166.637 E10.07948
G1 X125.757 Y165.481 E10.36796
G1 X117.281 Y165.108 E10.64410
G1 X97.199 Y165.108 E11.29774
G1 X96.448 Y165.050 E11.32225
G1 X95.778 Y164.890 E11.34466
G1 X95.139 Y164.623 E11.36720
G1 X94.548 Y164.262 E11.38976
G1 X94.023 Y163.814 E11.41222
G1 X93.574 Y163.288 E11.43473
G1 X93.212 Y162.698 E11.45727
G1 X92.948 Y162.060 E11.47973
G1 X92.787 Y161.389 E11.50219
G1 X92.729 Y160.636 E11.52677
G1 X92.729 Y154.699 E11.72001
G1 X93.308 Y155.278 E11.74664
G1 X94.356 Y156.126 E11.79054
G1 X95.488 Y156.863 E11.83449
G1 X96.691 Y157.475 E11.87843
G1 X97.950 Y157.958 E11.92232
G1 X99.253 Y158.307 E11.96621
G1 X100.586 Y158.520 E12.01017
G1 X101.934 Y158.588 E12.05409
G1 X103.280 Y158.520 E12.09795
G1 X104.613 Y158.307 E12.14190
G1 X105.917 Y157.958 E12.18584
G1 X107.177 Y157.475 E12.22975
G1 X108.380 Y156.863 E12.27369
G1 X109.512 Y156.126 E12.31767
G1 X110.559 Y155.277 E12.36152
G1 X111.512 Y154.324 E12.40539
G1 X112.363 Y153.275 E12.44934
G1 X113.098 Y152.145 E12.49325
G1 X113.710 Y150.941 E12.53719
G1 X114.193 Y149.680 E12.58114
G1 X114.542 Y148.378 E12.62501
G1 X114.754 Y147.046 E12.66892
G1 X114.825 Y145.699 E12.71283
G1 X114.754 Y144.350 E12.75680
G1 X114.542 Y143.017 E12.80072
G1 X114.193 Y141.716 E12.84459
G1 X113.710 Y140.455 E12.88854
G1 X113.098 Y139.252 E12.93246
G1 X112.363 Y138.119 E12.97644
G1 X111.512 Y137.071 E13.02036
G1 X110.559 Y136.119 E13.06421
G1 X109.512 Y135.270 E13.10806
G1 X108.380 Y134.533 E13.15204
G1 X107.177 Y133.921 E13.19598
G1 X105.917 Y133.438 E13.23989
G1 X104.613 Y133.089 E13.28383
G1 X103.280 Y132.876 E13.32778
G1 X101.934 Y132.808 E13.37164
G1 X100.586 Y132.876 E13.41556
G1 X99.253 Y133.089 E13.45952
G1 X97.950 Y133.438 E13.50341
G1 X96.691 Y133.921 E13.54730
G1 X95.488 Y134.533 E13.59124
G1 X94.356 Y135.270 E13.63519
G1 X93.308 Y136.118 E13.67909
G1 X92.796 Y136.629 E13.70262
G1 F1800.000 E12.70262
G92 E0
G1 X87.861 Y113.578 F6000.000
G1 F1800.000 E1.00000
G1 X86.716 Y113.272 F810.000 E1.03858
G1 X85.934 Y113.149 E1.06435
G1 X85.183 Y113.108 E1.08882
G1 X66.264 Y113.108 E1.70461
G1 X65.705 Y113.020 E1.72304
G1 X65.705 Y109.376 E1.84165
G1 X66.264 Y109.288 E1.86008
G1 X89.172 Y109.288 E2.60570
G1 X89.226 Y109.455 E2.61140
G1 X88.017 Y110.337 E2.66012
G1 X87.413 Y112.200 E2.72385
G1 X87.832 Y113.487 E2.76791
G1 X87.289 Y114.083 F6000.000
G1 X86.584 Y113.895 F810.000 E2.79167
G1 X85.867 Y113.782 E2.81531
G1 X85.166 Y113.744 E2.83815
G1 X66.214 Y113.744 E3.45499
G1 X65.355 Y113.609 E3.48329
G1 X65.069 Y113.463 E3.49376
G1 X65.069 Y108.933 E3.64119
G1 X65.355 Y108.787 E3.65165
G1 X66.214 Y108.652 E3.67996
G1 X136.064 Y108.652 E5.95344
G1 X136.921 Y108.787 E5.98170
G1 X137.628 Y109.147 E6.00751
G1 X138.189 Y109.708 E6.03333
G1 X138.550 Y110.415 E6.05918
G1 X138.786 Y111.901 E6.10814
G1 X138.829 Y111.896 E6.10956
G1 X139.284 Y115.349 E6.22292
G1 X140.434 Y120.540 E6.39599
G1 X140.749 Y121.537 E6.43002
G1 X140.628 Y121.628 E6.43495
G1 X140.018 Y121.221 E6.45882
G1 X138.362 Y120.892 E6.51377
G1 X135.174 Y120.892 E6.61753
G1 X133.518 Y121.221 E6.67248
G1 X131.347 Y122.671 E6.75746
G1 X132.872 Y115.791 E6.98684
G1 X133.141 Y113.744 E7.05404
G1 X121.112 Y113.744 E7.44556
G1 X120.411 Y113.782 E7.46840
G1 X119.694 Y113.895 E7.49203
G1 X118.989 Y114.083 E7.51579
G1 X118.310 Y114.345 E7.53948
G1 X117.661 Y114.674 E7.56316
G1 X117.050 Y115.071 E7.58686
G1 X116.447 Y115.567 E7.61230
G1 X115.971 Y116.044 E7.63422
G1 X115.512 Y116.610 E7.65794
G1 X115.115 Y117.222 E7.68170
G1 X114.786 Y117.868 E7.70529
G1 X114.524 Y118.548 E7.72900
G1 X114.336 Y119.254 E7.75277
G1 X114.223 Y119.970 E7.77639
G1 X114.185 Y120.671 E7.79923
G1 X114.185 Y135.352 E8.27709
G1 X126.367 Y135.352 E8.67361
G1 X130.492 Y125.391 E9.02455
G1 X130.689 Y125.410 E9.03099
G1 X131.044 Y127.195 E9.09022
G1 X132.035 Y128.678 E9.14829
G1 X133.518 Y129.669 E9.20635
G1 X135.174 Y129.998 E9.26131
G1 X138.475 Y129.998 E9.36876
G1 X138.538 Y130.258 E9.37745
G1 X138.080 Y130.491 E9.39416
G1 X138.154 Y130.631 E9.39932
G1 X137.076 Y131.328 E9.44110
G1 X135.444 Y132.631 E9.50908
G1 X133.948 Y134.090 E9.57708
G1 X132.605 Y135.691 E9.64510
G1 X131.430 Y137.415 E9.71303
G1 X130.430 Y139.249 E9.78100
G1 X129.617 Y141.176 E9.84909
G1 X129.001 Y143.171 E9.91706
G1 X128.588 Y145.219 E9.98505
G1 X128.381 Y147.298 E10.05303
G1 X128.381 Y149.676 E10.13045
G1 X127.136 Y148.845 E10.17917
G1 X125.480 Y148.516 E10.23412
G1 X122.292 Y148.516 E10.33788
G1 X120.636 Y148.845 E10.39283
G1 X119.153 Y149.836 E10.45090
G1 X118.162 Y151.319 E10.50897
G1 X117.814 Y153.069 E10.56704
G1 X118.162 Y154.819 E10.62511
G1 X119.153 Y156.302 E10.68317
G1 X120.636 Y157.293 E10.74124
G1 X122.292 Y157.622 E10.79619
G1 X125.480 Y157.622 E10.89995
G1 X127.136 Y157.293 E10.95490
G1 X128.619 Y156.302 E11.01297
G1 X129.610 Y154.819 E11.07103
G1 X129.948 Y153.119 E11.12744
G1 X130.922 Y154.280 E11.17676
G1 X132.416 Y155.739 E11.24472
G1 X134.051 Y157.042 E11.31277
G1 X135.807 Y158.176 E11.38079
G1 X137.663 Y159.129 E11.44872
G1 X139.608 Y159.892 E11.51672
G1 X141.620 Y160.458 E11.58474
G1 X143.677 Y160.820 E11.65273
G1 X145.761 Y160.977 E11.72074
G1 X147.849 Y160.923 E11.78875
G1 X149.009 Y160.779 E11.82679
G1 X149.029 Y160.879 E11.83013
